X:73
T:Hawk's Nest* + (h)
B:NFID.082a  ("untitled highland")
073hawks_n
S:JD
N:Anacrusis is better as a triplet (i.e |(3AB^c| instead of |AB^c|).
L:1/8
M:C
R:hornpipe % A-B-A ending on BGG2 or FDD2
Q:280
K:C
(3AB^c||ded^c defd|(3cdc AF cFA^c|(3ddd d^c dfeg|fdcA AGGc|
ded^c defd|(3cdc AF cFA^c|ddd^c dfeg|fdcA BGG^f||
K:G
g2gf gbag|fgab c'afa|g2gf gbag|(3fed cA BGGf|
g2gf gbag|fgab c'afa|d'c'bd' c'age|fd (3cBA Ggfg||
= = =
P:version in G/D
K:G
(3EF^G||ABA^G ABcA|(3GAG EC GCE^G|(3AAA A^G AcBd|cAGE EDDG|
ABA^G ABcA|(3GAG EC GCE^G|AAA^G AcBd|cAGE FDD^c||
K:D
d2dc dfed|cdef gece|d2dc dfed|(3cBA GE FDDc|
d2dc dfed|cdef gece|agfa gedB|cA (3GFE Ddcd||


%%%

